img/clock-desktop.svg

<svg width="142" height="139" viewBox="0 0 142 139" fill="none" xmlns="http://www.w3.org/2000/svg">
	<path d="M71.9973 21.377V0.99613C71.9973 0.73194 71.8917 0.47857 71.7037 0.29176C71.5158 0.104949 71.2608 0 70.995 0C70.7292 0 70.4742 0.104949 70.2862 0.29176C70.0983 0.47857 69.9927 0.73194 69.9927 0.99613V21.377H71.9973Z" fill="white" />
	<path d="M45.8766 28.3299C46.4479 27.9813 47.0293 27.6526 47.6106 27.3338L37.3468 9.70231C37.2081 9.48549 36.9905 9.3303 36.7394 9.26918C36.4883 9.20805 36.2231 9.24571 35.9993 9.37429C35.7755 9.50286 35.6103 9.71241 35.5383 9.95916C35.4662 10.2059 35.4929 10.4708 35.6128 10.6984L45.8766 28.3299Z" fill="white" />
	<path d="M10.5245 34.5956C10.3929 34.8231 10.3571 35.093 10.4246 35.3467C10.4922 35.6004 10.6577 35.8173 10.8853 35.9503L28.6165 46.1806C28.9372 45.6028 29.268 45.0251 29.6188 44.4573L11.8976 34.227C11.7832 34.1612 11.6569 34.1184 11.5258 34.1013C11.3947 34.0842 11.2615 34.093 11.1339 34.1273C11.0062 34.1616 10.8867 34.2206 10.7821 34.3009C10.6775 34.3813 10.5899 34.4815 10.5245 34.5956Z" fill="white" />
	<path d="M106.658 8.48703C106.544 8.42075 106.418 8.37745 106.288 8.35961C106.157 8.34177 106.024 8.34973 105.896 8.38304C105.769 8.41636 105.649 8.47437 105.544 8.55375C105.439 8.63313 105.351 8.73232 105.285 8.84564L94.4595 27.3737C95.0409 27.7024 95.6222 28.0311 96.1936 28.3698L107.019 9.85173C107.085 9.73863 107.129 9.61356 107.147 9.4837C107.165 9.35383 107.157 9.22172 107.123 9.09494C107.09 8.96816 107.031 8.8492 106.952 8.74488C106.872 8.64056 106.772 8.55294 106.658 8.48703Z" fill="white" />
	<path d="M132.087 35.532C132.202 35.4669 132.303 35.3799 132.383 35.2759C132.464 35.172 132.524 35.0532 132.558 34.9263C132.593 34.7995 132.602 34.6671 132.584 34.5368C132.567 34.4066 132.524 34.281 132.458 34.1673C132.391 34.054 132.303 33.9548 132.198 33.8754C132.093 33.796 131.974 33.738 131.846 33.7047C131.719 33.6714 131.586 33.6634 131.455 33.6812C131.324 33.6991 131.198 33.7424 131.085 33.8087L112.431 44.537C112.772 45.0948 113.103 45.6726 113.434 46.2603L132.087 35.532Z" fill="white" />
	<path d="M22.5524 69.5C22.5524 69.1713 22.5524 68.8326 22.5524 68.5039H1.00233C0.736495 68.5039 0.481549 68.6088 0.293575 68.7956C0.105602 68.9824 0 69.2358 0 69.5C0 69.7642 0.105602 70.0176 0.293575 70.2044C0.481549 70.3912 0.736495 70.4961 1.00233 70.4961H22.5825C22.5725 70.1674 22.5524 69.8387 22.5524 69.5Z" fill="white" />
	<path d="M140.998 68.5039H119.418C119.418 68.8326 119.418 69.1713 119.418 69.5C119.418 69.8287 119.418 70.1674 119.418 70.4961H140.998C141.264 70.4961 141.518 70.3912 141.706 70.2044C141.894 70.0176 142 69.7642 142 69.5C142 69.2358 141.894 68.9824 141.706 68.7956C141.518 68.6088 141.264 68.5039 140.998 68.5039Z" fill="white" />
	<path d="M131.105 103.05L113.383 92.8194C113.063 93.3972 112.732 93.9749 112.381 94.5427L130.102 104.773C130.255 104.859 130.428 104.904 130.604 104.902C130.822 104.9 131.034 104.827 131.207 104.694C131.38 104.561 131.504 104.375 131.561 104.165C131.618 103.955 131.604 103.732 131.522 103.531C131.439 103.33 131.293 103.161 131.105 103.05Z" fill="white" />
	<path d="M9.90301 103.468C9.789 103.534 9.68919 103.622 9.60931 103.726C9.52944 103.83 9.47107 103.949 9.43754 104.076C9.40402 104.203 9.39601 104.335 9.41396 104.465C9.43192 104.595 9.47549 104.72 9.54218 104.833C9.63049 104.985 9.75764 105.111 9.91078 105.198C10.0639 105.286 10.2376 105.331 10.4142 105.331C10.5912 105.333 10.765 105.284 10.9154 105.191L29.5687 94.473C29.2179 93.9052 28.8972 93.3274 28.5664 92.7397L9.90301 103.468Z" fill="white" />
	<path d="M96.1234 110.67C95.5521 111.019 94.9707 111.347 94.3793 111.666L104.643 129.298C104.731 129.45 104.859 129.576 105.012 129.663C105.165 129.751 105.339 129.796 105.515 129.796C105.692 129.798 105.866 129.749 106.016 129.656C106.244 129.523 106.409 129.306 106.477 129.053C106.545 128.799 106.509 128.529 106.377 128.302L96.1234 110.67Z" fill="white" />
	<path d="M34.9713 129.148C34.905 129.262 34.862 129.388 34.8448 129.518C34.8276 129.648 34.8364 129.78 34.8709 129.907C34.9054 130.034 34.9648 130.153 35.0456 130.257C35.1265 130.361 35.2273 130.448 35.3421 130.513C35.5711 130.644 35.8427 130.679 36.0979 130.612C36.3531 130.545 36.5714 130.381 36.7053 130.154L47.5405 111.626C46.9491 111.298 46.3678 110.979 45.8065 110.63L34.9713 129.148Z" fill="white" />
	<path d="M69.9927 117.623V138.004C69.9927 138.268 70.0983 138.521 70.2862 138.708C70.4742 138.895 70.7292 139 70.995 139C71.2608 139 71.5158 138.895 71.7037 138.708C71.8917 138.521 71.9973 138.268 71.9973 138.004V117.623H69.9927Z" fill="white" />
	<path d="M104.984 51.6892C105.155 51.5911 105.305 51.4604 105.425 51.3047C105.546 51.149 105.634 50.9712 105.685 50.7816C105.736 50.592 105.749 50.3942 105.724 50.1996C105.698 50.0049 105.634 49.8172 105.535 49.6471C105.437 49.4771 105.305 49.328 105.148 49.2084C104.992 49.0889 104.813 49.0011 104.622 48.9503C104.431 48.8994 104.232 48.8864 104.036 48.9119C103.84 48.9375 103.652 49.0011 103.48 49.0993L74.9843 65.4856C74.4582 64.9615 73.8333 64.5457 73.1453 64.262C72.4573 63.9784 71.7198 63.8323 70.9749 63.8323C70.2301 63.8323 69.4925 63.9784 68.8046 64.262C68.1166 64.5457 67.4917 64.9615 66.9656 65.4856L46.6284 53.7014C46.2828 53.5006 45.8711 53.4445 45.4839 53.5453C45.0966 53.6462 44.7656 53.8958 44.5636 54.2393C44.3615 54.5827 44.3051 54.9919 44.4066 55.3767C44.5081 55.7615 44.7592 56.0905 45.1048 56.2913L65.5122 68.0656C65.311 68.8396 65.2777 69.6472 65.4146 70.435C65.5514 71.2228 65.8552 71.9726 66.3059 72.6348C66.7566 73.2969 67.3438 73.8563 68.0285 74.2757C68.7133 74.6951 69.48 74.965 70.2778 75.0675C71.0755 75.17 71.8861 75.1027 72.6557 74.8701C73.4253 74.6375 74.1363 74.245 74.7416 73.7185C75.3468 73.1919 75.8325 72.5435 76.1664 71.8162C76.5003 71.089 76.6748 70.2994 76.6782 69.5C76.6773 69.019 76.6133 68.5401 76.4877 68.0755L104.984 51.6892ZM70.995 72.2095C70.4657 72.2095 69.9483 72.0535 69.5082 71.7612C69.0681 71.469 68.725 71.0536 68.5225 70.5676C68.3199 70.0816 68.2669 69.5469 68.3702 69.0309C68.4735 68.515 68.7283 68.0411 69.1026 67.6691C69.4769 67.2972 69.9538 67.0439 70.4729 66.9412C70.992 66.8386 71.5301 66.8913 72.0191 67.0926C72.5081 67.2939 72.9261 67.6348 73.2202 68.0722C73.5143 68.5096 73.6712 69.0238 73.6712 69.5498C73.6581 70.2465 73.3703 70.9103 72.8699 71.3984C72.3694 71.8864 71.6962 72.1598 70.995 72.1597V72.2095Z" fill="white" />
</svg>

<svg width="142" height="139" fill="none" xmlns="http://www.w3.org/2000/svg"><path d="M71.997 21.377V.997a.993.993 0 00-.293-.705 1.005 1.005 0 00-1.711.704v20.381h2.004zm-26.12 6.953a43.255 43.255 0 011.734-.996L37.347 9.702a1.002 1.002 0 00-1.348-.328.997.997 0 00-.386 1.324L45.877 28.33zm-35.353 6.266a.99.99 0 00.361 1.354l17.731 10.23a43.51 43.51 0 011.003-1.723l-17.721-10.23a1.007 1.007 0 00-1.373.369zm96.134-26.109a1.01 1.01 0 00-1.114.067.992.992 0 00-.259.292L94.46 27.374a97.65 97.65 0 011.734.996l10.825-18.518a1.005 1.005 0 00.104-.757.998.998 0 00-.465-.608zm25.429 27.045a.986.986 0 00.471-.606.992.992 0 00-.712-1.222 1.008 1.008 0 00-.761.105l-18.654 10.728a57.03 57.03 0 011.003 1.723l18.653-10.728zM22.552 69.5v-.996H1.002c-.266 0-.52.105-.708.292a.993.993 0 000 1.408c.188.187.442.292.708.292h21.58c-.01-.329-.03-.657-.03-.996zm118.446-.996h-21.58v1.992h21.58A1.003 1.003 0 00142 69.5a1.003 1.003 0 00-1.002-.996zm-9.893 34.546l-17.722-10.23c-.32.577-.651 1.155-1.002 1.723l17.721 10.23a1.002 1.002 0 001.459-.608.992.992 0 00-.456-1.115zm-121.202.418a1.007 1.007 0 00-.465.608.992.992 0 00.104.757 1.01 1.01 0 00.872.498.933.933 0 00.501-.14L29.57 94.473c-.351-.568-.672-1.146-1.003-1.733L9.903 103.468zm86.22 7.202c-.57.349-1.152.677-1.744.996l10.264 17.632a1.01 1.01 0 00.872.498.932.932 0 00.501-.14.998.998 0 00.461-.603.986.986 0 00-.1-.751L96.123 110.67zm-61.152 18.478a.997.997 0 00.075 1.109 1.007 1.007 0 001.66-.103l10.835-18.528c-.592-.328-1.173-.647-1.734-.996L34.97 129.148zm35.022-11.525v20.381c0 .264.105.517.293.704a1.005 1.005 0 001.711-.704v-20.381h-2.004zm34.991-65.933a1.498 1.498 0 00.74-1.49 1.49 1.49 0 00-.576-.992 1.499 1.499 0 00-1.112-.296c-.196.026-.384.09-.556.187L74.984 65.486a5.666 5.666 0 00-4.01-1.654 5.695 5.695 0 00-4.008 1.654L46.628 53.7a1.518 1.518 0 00-2.064.538 1.492 1.492 0 00.54 2.052l20.408 11.775a5.603 5.603 0 00.794 4.569 5.66 5.66 0 001.722 1.64 5.697 5.697 0 006.714-.556 5.643 5.643 0 001.424-1.903 5.608 5.608 0 00.512-2.316c0-.481-.065-.96-.19-1.424l28.496-16.387zM70.995 72.21c-.53 0-1.047-.156-1.487-.449a2.663 2.663 0 01-.986-1.193 2.644 2.644 0 01.58-2.899 2.683 2.683 0 012.917-.576 2.656 2.656 0 011.652 2.457c-.013.697-.3 1.36-.801 1.848-.5.488-1.174.762-1.875.762v.05z" fill="#fff"/></svg>
